public/icons/edit_pen.svg

<svg width="none" height="none" viewBox="0 0 17 17" fill="none" xmlns="http://www.w3.org/2000/svg">
<path d="M15.5833 5.12843C15.5839 5.0352 15.566 4.94279 15.5308 4.85649C15.4955 4.77019 15.4436 4.6917 15.3779 4.62551L12.3746 1.62218C12.3084 1.55653 12.2299 1.50459 12.1436 1.46934C12.0573 1.43409 11.9649 1.41622 11.8717 1.41676C11.7784 1.41622 11.686 1.43409 11.5997 1.46934C11.5134 1.50459 11.4349 1.55653 11.3688 1.62218L9.36417 3.62676L1.62208 11.3688C1.55644 11.435 1.5045 11.5135 1.46925 11.5998C1.434 11.6861 1.41613 11.7785 1.41667 11.8718V14.8751C1.41667 15.063 1.4913 15.2431 1.62413 15.376C1.75697 15.5088 1.93714 15.5834 2.125 15.5834H5.12833C5.22745 15.5888 5.32659 15.5733 5.41933 15.5379C5.51207 15.5025 5.59634 15.4481 5.66667 15.378L13.3663 7.63593L15.3779 5.66676C15.4426 5.59811 15.4952 5.51909 15.5338 5.43301C15.5406 5.37655 15.5406 5.31947 15.5338 5.26301C15.5371 5.23004 15.5371 5.19682 15.5338 5.16384L15.5833 5.12843ZM4.83792 14.1668H2.83333V12.1622L9.86709 5.12843L11.8717 7.13301L4.83792 14.1668ZM12.8704 6.13426L10.8658 4.12968L11.8717 3.13093L13.8692 5.12843L12.8704 6.13426Z" fill="none"/>
</svg>

<svg xmlns="http://www.w3.org/2000/svg" width="none" height="none" fill="none" viewBox="0 0 17 17"><path d="M15.583 5.128a.708.708 0 0 0-.205-.502l-3.003-3.004a.709.709 0 0 0-.503-.205.708.708 0 0 0-.503.205L9.364 3.627l-7.742 7.742a.709.709 0 0 0-.205.503v3.003a.708.708 0 0 0 .708.708h3.003a.708.708 0 0 0 .539-.205l7.7-7.742 2.01-1.97a.844.844 0 0 0 .157-.233.71.71 0 0 0 0-.17.498.498 0 0 0 0-.1l.05-.035ZM4.838 14.167H2.833v-2.005l7.034-7.034 2.005 2.005-7.034 7.034Zm8.032-8.033L10.866 4.13l1.006-1 1.997 1.998-.999 1.006Z"/></svg>
